!!!OTL: Rache im Zweikampf Dernier chez nous il-y-a un capitaine
!!!ARE: Europa, Mitteleuropa, franzoesische Schweiz, Jura
!!!YOR: 5, S. 105
!!    1917 gedruckt in Bale und Lausanne
!!!SCT: Q2097E
!!!YEM: Copyright 1995, estate of Helmut Schaffrath.
**kern
*ICvox
*Ivox
*M6/8
*k[]
*C:
=1
{8a
8a
8b-
8cc
8dd
8cc
=2
8b-
8a
8g
4f
8f}
=3
{8a
8a
8b-
8cc
8dd
8cc
=4
8b-
8a
8g
4f}
{8g
=5
4g
8f
4.e
=6
8g
8cc
8dd
4ee
8dd
=7
8cc
8dd}
{8ee
4g
8f
=8
4.e
8g
8g
8g
=9
8b
8a
8b
4.cc}
==
!!!AGN: Ballade, Frau in Maennerkleidung, Soldat, Betrug, Rache
!! Schweizerische Fassung der Ballade.
!!!ONB: ESAC (Essen Associative Code) Database: BALLADE
!!!AMT: compound duple
!!!AIN: vox
!!!EED: Helmut Schaffrath
!!!EEV: 1.0
*-
